icons/dropwizard/dropwizard-plain.svg

<?xml version="1.0" encoding="UTF-8" standalone="no"?>
<svg
   width="128"
   height="128"
   version="1.1"
   id="svg45"
   viewBox="0 0 128 128"
   xmlns="http://www.w3.org/2000/svg"
   xmlns:svg="http://www.w3.org/2000/svg">
  <defs
     id="defs29">
    <clipPath
       id="a">
      <path
         d="M 1166.39,0 C 522.219,0 0,136.859 0,305.922 c 0,168.84 522.219,305.797 1166.39,305.797 644.13,0 1166.34,-136.957 1166.34,-305.797 C 2332.73,136.859 1810.52,0 1166.39,0"
         id="path2" />
    </clipPath>
    <clipPath
       id="b">
      <path
         d="m 180.895,285.039 c 0,0 1139.805,-565.621 2011.855,106.641 -227.41,610.38 -626.72,2371.23 -862.53,3148.89 -50.27,165.81 -58.48,182.34 -79.05,227.87 C 1136.08,4023.15 1015.01,3274.14 818.109,2520.16 747.602,2249.91 180.895,285.039 180.895,285.039 Z"
         id="path5" />
    </clipPath>
    <linearGradient
       id="c"
       x2="1"
       gradientTransform="matrix(-3070,-1630,-1630,3070,3221.19,2903.28)"
       gradientUnits="userSpaceOnUse">
      <stop
         offset="0"
         stop-color="#3871c1"
         id="stop8" />
      <stop
         offset=".515"
         stop-color="#2c3792"
         id="stop10" />
      <stop
         offset=".865"
         stop-color="#24265d"
         id="stop12" />
      <stop
         offset="1"
         stop-color="#252761"
         id="stop14" />
    </linearGradient>
    <clipPath
       id="d">
      <path
         d="m 410.777,410.078 c 0,0 975.133,-572.168 1781.973,-18.398 -21.6,96.371 -76.64,251.09 -114.02,395.218 C 1880.09,1552.62 1520.59,2845.49 1345.41,3487.33 1155.54,4182.28 1094.12,3369.68 872.629,2505 805.336,2242.07 410.777,410.078 410.777,410.078 Z"
         id="path17" />
    </clipPath>
    <linearGradient
       id="e"
       x2="1"
       gradientTransform="matrix(-1791.5791,-467.37267,-467.37267,1791.5791,1735.7918,2037.4307)"
       gradientUnits="userSpaceOnUse">
      <stop
         offset="0"
         stop-color="#3871c1"
         id="stop20" />
      <stop
         offset=".515"
         stop-color="#2c3792"
         id="stop22" />
      <stop
         offset=".865"
         stop-color="#24265d"
         id="stop24" />
      <stop
         offset="1"
         stop-color="#252761"
         id="stop26" />
    </linearGradient>
  </defs>
  <path
     id="path31"
     style="fill:#3152a8;fill-opacity:1;stroke-width:0.0319431"
     d="M 64.664062 4.0097656 C 61.374944 3.467956 57.726144 24.420203 52.222656 45.494141 C 49.970456 54.126741 31.867187 116.89062 31.867188 116.89062 C 31.867188 116.89062 68.276813 134.95848 96.132812 113.48438 C 88.868612 93.98687 76.112578 37.741291 68.580078 12.900391 C 66.974278 7.603891 66.711687 7.0754937 66.054688 5.6210938 C 65.595137 4.6040687 65.133937 4.087167 64.664062 4.0097656 z M 59.224609 48.029297 L 62.248047 53.914062 L 58.787109 61.501953 L 55.988281 53.615234 L 59.224609 48.029297 z M 77.324219 70.335938 L 80.349609 76.220703 L 76.886719 83.810547 L 74.087891 75.921875 L 77.324219 70.335938 z M 50.886719 91.476562 L 53.912109 97.359375 L 50.451172 104.94922 L 47.650391 97.0625 L 50.886719 91.476562 z " />
</svg>

<svg viewBox="0 0 128 128" xmlns="http://www.w3.org/2000/svg"><path d="M64.664 4.01c-3.29-.542-6.938 20.41-12.441 41.484-2.253 8.633-20.356 71.397-20.356 71.397s36.41 18.067 64.266-3.407C88.869 93.987 76.113 37.741 68.58 12.9c-1.606-5.296-1.868-5.825-2.525-7.279-.46-1.017-.921-1.534-1.39-1.611zm-5.44 44.02l3.024 5.884-3.46 7.588-2.8-7.887 3.237-5.586zm18.1 22.306l3.026 5.885-3.463 7.59-2.8-7.89 3.237-5.585zm-26.437 21.14l3.025 5.883-3.46 7.59-2.802-7.886 3.237-5.586z" fill="#3152a8"/></svg>
